svgs/sharp-regular/yen-sign.svg

<svg xmlns="http://www.w3.org/2000/svg" viewBox="0 0 320 512"><!--! Font Awesome Pro 6.6.0 by @fontawesome - https://fontawesome.com License - https://fontawesome.com/license (Commercial License) Copyright 2024 Fonticons, Inc. --><path d="M2.2 32L113.7 224 40 224l-24 0 0 48 24 0 96 0 0 48-96 0-24 0 0 48 24 0 96 0 0 88 0 24 48 0 0-24 0-88 96 0 24 0 0-48-24 0-96 0 0-48 96 0 24 0 0-48-24 0-73.7 0L317.8 32l-55.5 0L160 208.2 57.7 32 2.2 32z"/></svg>

<svg xmlns="http://www.w3.org/2000/svg" viewBox="0 0 320 512"><!--! Font Awesome Pro 6.4.2 by @fontawesome - https://fontawesome.com License - https://fontawesome.com/license (Commercial License) Copyright 2023 Fonticons, Inc. --><path d="M2.2 32L113.7 224H40 16v48H40h96v48H40 16v48H40h96v88 24h48V456 368h96 24V320H280 184V272h96 24V224H280 206.3L317.8 32H262.3L160 208.2 57.7 32H2.2z"/></svg>
